( pcb2gcode 1.3.2 )
( Software-independent Gcode )

G94 ( Millimeters per minute feed rate. )
G21 ( Units == Millimeters. )

G90 ( Absolute coordinates. )
S1000 ( RPM spindle speed. )
F50.00000 ( Feedrate. )

F50.00000 ( Feedrate. )
M3 ( Spindle on clockwise. )
G04 P0 ( dwell for no time -- G64 should not smooth over this point )
G00 Z8.00000 ( retract )

G00 X4.54699 Y96.18420 ( rapid move to begin. )
F25.00000
G01 Z-0.20000
G04 P0 ( dwell for no time -- G64 should not smooth over this point )
F50.00000
X4.54699 Y96.18420
X4.31839 Y96.15880
X4.03899 Y96.00640
X3.83579 Y95.77780
X3.78499 Y95.77780
X3.65799 Y95.65080
X3.48019 Y95.24440
X3.48019 Y94.76180
X3.65799 Y94.35540
X3.98819 Y94.10140
X4.34379 Y93.99980
X4.77559 Y94.02520
X4.97879 Y94.10140
X5.05499 Y94.17760
X18.33919 Y94.17760
X18.69479 Y94.27920
X18.72019 Y94.33000
X18.87259 Y94.40620
X19.12659 Y94.71100
X19.22819 Y95.06660
X19.20279 Y95.47300
X19.02499 Y95.82860
X18.69479 Y96.10800
X18.33919 Y96.20960
X4.54699 Y96.18420
G04 P0 ( dwell for no time -- G64 should not smooth over this point )
G00 Z8.00000 ( retract )

G00 X28.82939 Y96.18420 ( rapid move to begin. )
F25.00000
G01 Z-0.20000
G04 P0 ( dwell for no time -- G64 should not smooth over this point )
F50.00000
X28.82939 Y96.18420
X28.60079 Y96.15880
X28.32139 Y96.00640
X28.04199 Y95.67620
X27.94039 Y95.32060
X27.94039 Y95.06660
X28.04199 Y94.71100
X28.32139 Y94.38080
X28.67699 Y94.20300
X35.02699 Y94.17760
X35.10319 Y94.10140
X35.30639 Y94.02520
X35.73819 Y93.99980
X35.99219 Y94.05060
X36.11919 Y94.15220
X36.22079 Y94.17760
X36.24619 Y94.22840
X36.29699 Y94.22840
X36.47479 Y94.43160
X36.60179 Y94.76180
X36.60179 Y95.24440
X36.47479 Y95.57460
X36.29699 Y95.77780
X36.16999 Y95.82860
X36.01759 Y96.00640
X35.66199 Y96.18420
X35.50959 Y96.20960
X28.82939 Y96.18420
G04 P0 ( dwell for no time -- G64 should not smooth over this point )
G00 Z8.00000 ( retract )

G00 X23.57159 Y60.42100 ( rapid move to begin. )
F25.00000
G01 Z-0.20000
G04 P0 ( dwell for no time -- G64 should not smooth over this point )
F50.00000
X23.57159 Y60.42100
X23.34299 Y60.39560
X23.06359 Y60.24320
X20.14259 Y57.32220
X19.96479 Y56.96660
X19.93939 Y56.56020
X20.04099 Y56.20460
X20.32039 Y55.87440
X20.37119 Y55.87440
X20.47279 Y55.77280
X20.82839 Y55.67120
X21.23479 Y55.69660
X21.59039 Y55.87440
X24.10499 Y58.41440
X28.93099 Y58.41440
X37.74479 Y49.60060
X37.74479 Y6.49680
X34.54439 Y3.29640
X30.86139 Y3.27100
X30.73439 Y3.19480
X30.65819 Y3.19480
X30.32799 Y2.91540
X30.17559 Y2.63600
X30.12479 Y2.40740
X30.12479 Y2.15340
X30.22639 Y1.79780
X30.50579 Y1.46760
X30.86139 Y1.28980
X31.01379 Y1.26440
X35.23019 Y1.28980
X35.58579 Y1.46760
X39.57359 Y5.45540
X39.62439 Y5.58240
X39.67519 Y5.60780
X39.77679 Y5.96340
X39.75139 Y50.28640
X39.57359 Y50.64200
X29.97239 Y60.24320
X29.92159 Y60.24320
X29.81999 Y60.34480
X29.46439 Y60.44640
X23.57159 Y60.42100
G04 P0 ( dwell for no time -- G64 should not smooth over this point )
G00 Z8.00000 ( retract )

G00 X28.82939 Y57.67780 ( rapid move to begin. )
F25.00000
G01 Z-0.20000
G04 P0 ( dwell for no time -- G64 should not smooth over this point )
F50.00000
X28.82939 Y57.67780
X28.60079 Y57.65240
X28.32139 Y57.50000
X20.16799 Y49.34660
X20.16799 Y49.29580
X20.06639 Y49.19420
X19.96479 Y48.83860
X19.96479 Y47.74640
X12.70039 Y47.74640
X12.62419 Y47.72100
X12.52259 Y47.59400
X12.52259 Y47.28920
X12.44639 Y47.21300
X12.44639 Y47.13680
X12.37019 Y47.00980
X12.34479 Y46.60340
X12.44639 Y46.24780
X12.52259 Y46.17160
X12.52259 Y45.86680
X12.59879 Y45.76520
X12.72579 Y45.71440
X19.96479 Y45.71440
X19.96479 Y40.12640
X17.22159 Y40.10100
X17.09459 Y40.02480
X17.01839 Y40.02480
X16.78979 Y39.84700
X16.58659 Y39.59300
X16.58659 Y39.51680
X16.51039 Y39.38980
X16.48499 Y31.36340
X16.53579 Y31.13480
X16.68819 Y30.85540
X16.86599 Y30.67760
X17.22159 Y30.49980
X17.62799 Y30.47440
X17.98359 Y30.57600
X18.00899 Y30.62680
X18.13599 Y30.67760
X18.41539 Y31.00780
X18.51699 Y31.36340
X18.51699 Y38.09440
X19.96479 Y38.09440
X19.96479 Y31.36340
X20.06639 Y31.00780
X20.34579 Y30.67760
X20.70139 Y30.49980
X21.10779 Y30.47440
X21.46339 Y30.57600
X21.48879 Y30.62680
X21.61579 Y30.67760
X21.89519 Y31.00780
X21.99679 Y31.36340
X21.99679 Y48.30520
X24.86699 Y51.17540
X24.89239 Y46.45100
X24.96859 Y46.32400
X24.96859 Y46.24780
X25.01939 Y46.22240
X25.09559 Y46.07000
X25.40039 Y45.81600
X25.47659 Y45.81600
X25.60359 Y45.73980
X26.16239 Y45.73980
X26.51799 Y45.91760
X26.79739 Y46.24780
X26.89899 Y46.60340
X26.89899 Y53.20740
X28.95639 Y55.26480
X35.20479 Y49.01640
X35.20479 Y24.27680
X32.86799 Y21.96540
X32.86799 Y21.91460
X32.76639 Y21.81300
X32.66479 Y21.45740
X32.66479 Y7.18260
X31.31859 Y5.83640
X30.86139 Y5.81100
X30.50579 Y5.63320
X30.22639 Y5.30300
X30.12479 Y4.94740
X30.12479 Y4.69340
X30.22639 Y4.33780
X30.27719 Y4.31240
X30.32799 Y4.18540
X30.65819 Y3.90600
X31.01379 Y3.80440
X31.85199 Y3.80440
X32.20759 Y3.90600
X32.30919 Y4.00760
X32.35999 Y4.00760
X34.49359 Y6.14120
X34.67139 Y6.49680
X34.69679 Y20.92400
X37.03359 Y23.23540
X37.18599 Y23.51480
X37.23679 Y23.74340
X37.23679 Y49.54980
X37.18599 Y49.77840
X37.03359 Y50.05780
X29.59139 Y57.50000
X29.23579 Y57.67780
X28.82939 Y57.67780
G04 P0 ( dwell for no time -- G64 should not smooth over this point )
G00 Z8.00000 ( retract )

G00 X29.74379 Y47.72100 ( rapid move to begin. )
F25.00000
G01 Z-0.20000
G04 P0 ( dwell for no time -- G64 should not smooth over this point )
F50.00000
X29.74379 Y47.72100
X29.51519 Y47.69560
X29.46439 Y47.64480
X29.38819 Y47.64480
X29.28659 Y47.54320
X29.08339 Y47.54320
X29.08339 Y47.36540
X28.95639 Y47.21300
X28.95639 Y47.13680
X28.88019 Y47.00980
X28.85479 Y43.80940
X28.90559 Y43.58080
X29.05799 Y43.30140
X32.33459 Y40.05020
X32.33459 Y26.46120
X31.75039 Y25.87700
X31.64879 Y25.82620
X26.51799 Y20.69540
X26.51799 Y20.64460
X26.41639 Y20.54300
X26.31479 Y20.18740
X26.31479 Y16.12340
X26.36559 Y15.89480
X26.51799 Y15.61540
X27.96579 Y14.16760
X28.01659 Y14.16760
X28.11819 Y14.06600
X28.47379 Y13.96440
X31.26779 Y13.96440
X31.62339 Y14.06600
X31.64879 Y14.11680
X31.77579 Y14.16760
X32.05519 Y14.49780
X32.15679 Y14.85340
X32.15679 Y15.10740
X32.05519 Y15.46300
X31.77579 Y15.79320
X31.42019 Y15.97100
X29.00719 Y15.99640
X28.34679 Y16.65680
X28.34679 Y19.65400
X28.82939 Y20.13660
X28.88019 Y20.13660
X34.16339 Y25.41980
X34.34119 Y25.77540
X34.36659 Y40.58360
X34.31579 Y40.81220
X34.16339 Y41.09160
X30.88679 Y44.34280
X30.88679 Y46.85740
X30.78519 Y47.21300
X30.68359 Y47.31460
X30.68359 Y47.54320
X30.45499 Y47.54320
X30.35339 Y47.64480
X30.27719 Y47.64480
X30.15019 Y47.72100
X29.99779 Y47.74640
X29.74379 Y47.72100
G04 P0 ( dwell for no time -- G64 should not smooth over this point )
G00 Z8.00000 ( retract )

G00 X28.47379 Y40.10100 ( rapid move to begin. )
F25.00000
G01 Z-0.20000
G04 P0 ( dwell for no time -- G64 should not smooth over this point )
F50.00000
X28.47379 Y40.10100
X28.32139 Y40.10100
X28.19439 Y40.02480
X27.71179 Y40.02480
X27.71179 Y39.59300
X27.63559 Y39.46600
X27.58479 Y39.23740
X27.61019 Y38.83100
X27.71179 Y38.62780
X27.71179 Y38.22140
X28.06739 Y38.22140
X30.12479 Y36.16400
X30.12479 Y28.41700
X26.59419 Y24.88640
X20.85379 Y24.88640
X20.62519 Y24.83560
X20.34579 Y24.68320
X17.29779 Y21.60980
X17.29779 Y21.55900
X17.19619 Y21.45740
X17.09459 Y21.10180
X17.09459 Y11.22120
X16.51039 Y10.63700
X16.45959 Y10.63700
X11.68439 Y5.83640
X8.15379 Y5.83640
X7.92519 Y5.78560
X7.64579 Y5.63320
X7.36639 Y5.30300
X7.36639 Y5.22680
X7.29019 Y5.09980
X7.26479 Y4.69340
X7.31559 Y4.46480
X7.46799 Y4.18540
X7.79819 Y3.90600
X8.15379 Y3.80440
X12.21779 Y3.80440
X12.57339 Y3.90600
X12.59879 Y3.95680
X12.72579 Y4.00760
X13.58939 Y4.89660
X13.64019 Y4.89660
X18.92339 Y10.17980
X19.07579 Y10.45920
X19.12659 Y10.68780
X19.12659 Y20.56840
X21.33639 Y22.75280
X21.38719 Y22.85440
X27.12759 Y22.85440
X27.48319 Y22.95600
X27.50859 Y23.00680
X27.66099 Y23.08300
X31.95359 Y27.37560
X31.95359 Y27.42640
X32.05519 Y27.52800
X32.15679 Y27.88360
X32.13139 Y36.84980
X31.95359 Y37.20540
X29.51519 Y39.61840
X29.51519 Y40.02480
X29.00719 Y40.02480
X28.95639 Y40.07560
X28.72779 Y40.12640
X28.47379 Y40.10100
G04 P0 ( dwell for no time -- G64 should not smooth over this point )
G00 Z8.00000 ( retract )

G00 X23.39379 Y40.10100 ( rapid move to begin. )
F25.00000
G01 Z-0.20000
G04 P0 ( dwell for no time -- G64 should not smooth over this point )
F50.00000
X23.39379 Y40.10100
X23.16519 Y40.07560
X22.88579 Y39.92320
X22.60639 Y39.59300
X22.50479 Y39.23740
X22.50479 Y38.98340
X22.60639 Y38.62780
X22.88579 Y38.29760
X23.16519 Y38.14520
X23.39379 Y38.09440
X26.18779 Y38.09440
X26.41639 Y38.14520
X26.69579 Y38.29760
X26.87359 Y38.47540
X27.02599 Y38.75480
X27.07679 Y38.98340
X27.07679 Y39.23740
X26.97519 Y39.59300
X26.69579 Y39.92320
X26.41639 Y40.07560
X26.18779 Y40.12640
X23.39379 Y40.10100
G04 P0 ( dwell for no time -- G64 should not smooth over this point )
G00 Z8.00000 ( retract )

G00 X23.39379 Y32.48100 ( rapid move to begin. )
F25.00000
G01 Z-0.20000
G04 P0 ( dwell for no time -- G64 should not smooth over this point )
F50.00000
X23.39379 Y32.48100
X23.16519 Y32.45560
X22.88579 Y32.30320
X22.60639 Y31.97300
X22.50479 Y31.61740
X22.50479 Y31.36340
X22.60639 Y31.00780
X22.88579 Y30.67760
X23.16519 Y30.52520
X23.39379 Y30.47440
X26.18779 Y30.47440
X26.54339 Y30.57600
X26.56879 Y30.62680
X26.69579 Y30.67760
X26.87359 Y30.85540
X27.02599 Y31.13480
X27.07679 Y31.36340
X27.07679 Y31.61740
X26.97519 Y31.97300
X26.69579 Y32.30320
X26.41639 Y32.45560
X26.18779 Y32.50640
X23.39379 Y32.48100
G04 P0 ( dwell for no time -- G64 should not smooth over this point )
G00 Z8.00000 ( retract )

G00 X28.47379 Y32.48100 ( rapid move to begin. )
F25.00000
G01 Z-0.20000
G04 P0 ( dwell for no time -- G64 should not smooth over this point )
F50.00000
X28.47379 Y32.48100
X28.32139 Y32.48100
X28.19439 Y32.40480
X27.71179 Y32.40480
X27.71179 Y31.97300
X27.63559 Y31.84600
X27.58479 Y31.61740
X27.58479 Y29.00120
X26.00999 Y27.42640
X19.58379 Y27.42640
X19.35519 Y27.37560
X19.07579 Y27.22320
X15.08799 Y23.23540
X15.08799 Y23.18460
X14.98639 Y23.08300
X14.88479 Y22.72740
X14.88479 Y12.97380
X10.28739 Y8.37640
X8.15379 Y8.37640
X7.79819 Y8.27480
X7.69659 Y8.17320
X7.64579 Y8.17320
X7.36639 Y7.84300
X7.26479 Y7.48740
X7.26479 Y7.23340
X7.36639 Y6.87780
X7.64579 Y6.54760
X7.92519 Y6.39520
X8.15379 Y6.34440
X10.82079 Y6.34440
X11.17639 Y6.44600
X11.20179 Y6.49680
X11.32879 Y6.54760
X16.71359 Y11.93240
X16.71359 Y11.98320
X16.81519 Y12.08480
X16.91679 Y12.44040
X16.91679 Y22.19400
X20.11719 Y25.39440
X26.54339 Y25.39440
X26.77199 Y25.44520
X27.05139 Y25.59760
X29.41359 Y27.95980
X29.59139 Y28.31540
X29.61679 Y31.61740
X29.56599 Y31.84600
X29.51519 Y31.89680
X29.51519 Y32.40480
X29.00719 Y32.40480
X28.95639 Y32.45560
X28.72779 Y32.50640
X28.47379 Y32.48100
G04 P0 ( dwell for no time -- G64 should not smooth over this point )
G00 Z8.00000 ( retract )

G00 X31.01379 Y20.94940 ( rapid move to begin. )
F25.00000
G01 Z-0.20000
G04 P0 ( dwell for no time -- G64 should not smooth over this point )
F50.00000
X31.01379 Y20.94940
X30.86139 Y20.94940
X30.68359 Y20.87320
X30.37879 Y20.61920
X30.25179 Y20.31440
X30.25179 Y19.83180
X30.37879 Y19.52700
X30.68359 Y19.27300
X31.01379 Y19.17140
X31.44559 Y19.19680
X31.75039 Y19.34920
X31.92819 Y19.52700
X32.05519 Y19.83180
X32.05519 Y20.31440
X31.92819 Y20.61920
X31.75039 Y20.79700
X31.44559 Y20.94940
X31.01379 Y20.94940
G04 P0 ( dwell for no time -- G64 should not smooth over this point )
G00 Z8.00000 ( retract )

G00 X31.01379 Y18.40940 ( rapid move to begin. )
F25.00000
G01 Z-0.20000
G04 P0 ( dwell for no time -- G64 should not smooth over this point )
F50.00000
X31.01379 Y18.40940
X30.86139 Y18.40940
X30.68359 Y18.33320
X30.37879 Y18.07920
X30.25179 Y17.77440
X30.25179 Y17.29180
X30.37879 Y16.98700
X30.68359 Y16.73300
X31.01379 Y16.63140
X31.44559 Y16.65680
X31.75039 Y16.80920
X31.92819 Y16.98700
X32.05519 Y17.29180
X32.05519 Y17.77440
X31.92819 Y18.07920
X31.75039 Y18.25700
X31.44559 Y18.40940
X31.01379 Y18.40940
G04 P0 ( dwell for no time -- G64 should not smooth over this point )
G00 Z8.00000 ( retract )

G00 X31.01379 Y13.32940 ( rapid move to begin. )
F25.00000
G01 Z-0.20000
G04 P0 ( dwell for no time -- G64 should not smooth over this point )
F50.00000
X31.01379 Y13.32940
X30.86139 Y13.32940
X30.68359 Y13.25320
X30.37879 Y12.99920
X30.25179 Y12.69440
X30.25179 Y12.21180
X30.37879 Y11.90700
X30.68359 Y11.65300
X31.01379 Y11.55140
X31.44559 Y11.57680
X31.75039 Y11.72920
X31.92819 Y11.90700
X32.05519 Y12.21180
X32.05519 Y12.69440
X31.92819 Y12.99920
X31.75039 Y13.17700
X31.44559 Y13.32940
X31.29319 Y13.35480
X31.01379 Y13.32940
G04 P0 ( dwell for no time -- G64 should not smooth over this point )
G00 Z8.00000 ( retract )

G00 X31.01379 Y10.78940 ( rapid move to begin. )
F25.00000
G01 Z-0.20000
G04 P0 ( dwell for no time -- G64 should not smooth over this point )
F50.00000
X31.01379 Y10.78940
X30.86139 Y10.78940
X30.68359 Y10.71320
X30.37879 Y10.45920
X30.25179 Y10.15440
X30.25179 Y9.67180
X30.37879 Y9.36700
X30.68359 Y9.11300
X31.01379 Y9.01140
X31.44559 Y9.03680
X31.75039 Y9.18920
X31.92819 Y9.36700
X32.05519 Y9.67180
X32.05519 Y10.15440
X31.92819 Y10.45920
X31.75039 Y10.63700
X31.44559 Y10.78940
X31.29319 Y10.81480
X31.01379 Y10.78940
G04 P0 ( dwell for no time -- G64 should not smooth over this point )
G00 Z8.00000 ( retract )

G00 X31.01379 Y8.24940 ( rapid move to begin. )
F25.00000
G01 Z-0.20000
G04 P0 ( dwell for no time -- G64 should not smooth over this point )
F50.00000
X31.01379 Y8.24940
X30.86139 Y8.24940
X30.68359 Y8.17320
X30.37879 Y7.91920
X30.25179 Y7.61440
X30.25179 Y7.13180
X30.37879 Y6.82700
X30.68359 Y6.57300
X31.01379 Y6.47140
X31.44559 Y6.49680
X31.75039 Y6.64920
X31.92819 Y6.82700
X32.05519 Y7.13180
X32.05519 Y7.61440
X31.92819 Y7.91920
X31.75039 Y8.09700
X31.44559 Y8.24940
X31.29319 Y8.27480
X31.01379 Y8.24940
G04 P0 ( dwell for no time -- G64 should not smooth over this point )
G00 Z8.00000 ( retract )

G00 X8.15379 Y15.86940 ( rapid move to begin. )
F25.00000
G01 Z-0.20000
G04 P0 ( dwell for no time -- G64 should not smooth over this point )
F50.00000
X8.15379 Y15.86940
X8.00139 Y15.86940
X7.82359 Y15.79320
X7.51879 Y15.53920
X7.39179 Y15.23440
X7.39179 Y14.75180
X7.51879 Y14.44700
X7.82359 Y14.19300
X8.15379 Y14.09140
X8.58559 Y14.11680
X8.89039 Y14.26920
X9.06819 Y14.44700
X9.19519 Y14.75180
X9.19519 Y15.23440
X9.06819 Y15.53920
X8.89039 Y15.71700
X8.58559 Y15.86940
X8.43319 Y15.89480
X8.15379 Y15.86940
G04 P0 ( dwell for no time -- G64 should not smooth over this point )
G00 Z8.00000 ( retract )

G00 X8.15379 Y20.94940 ( rapid move to begin. )
F25.00000
G01 Z-0.20000
G04 P0 ( dwell for no time -- G64 should not smooth over this point )
F50.00000
X8.15379 Y20.94940
X8.00139 Y20.94940
X7.82359 Y20.87320
X7.51879 Y20.61920
X7.39179 Y20.31440
X7.39179 Y19.83180
X7.51879 Y19.52700
X7.82359 Y19.27300
X8.15379 Y19.17140
X8.58559 Y19.19680
X8.89039 Y19.34920
X9.06819 Y19.52700
X9.19519 Y19.83180
X9.19519 Y20.31440
X9.06819 Y20.61920
X8.89039 Y20.79700
X8.58559 Y20.94940
X8.15379 Y20.94940
G04 P0 ( dwell for no time -- G64 should not smooth over this point )
G00 Z8.00000 ( retract )

G00 X9.42379 Y32.48100 ( rapid move to begin. )
F25.00000
G01 Z-0.20000
G04 P0 ( dwell for no time -- G64 should not smooth over this point )
F50.00000
X9.42379 Y32.48100
X9.27139 Y32.48100
X9.14439 Y32.40480
X8.99199 Y32.40480
X8.99199 Y32.32860
X8.91579 Y32.30320
X8.63639 Y31.97300
X8.53479 Y31.61740
X8.53479 Y31.36340
X8.58559 Y31.13480
X8.73799 Y30.85540
X8.86499 Y30.75380
X8.89039 Y27.07080
X9.06819 Y26.71520
X12.34479 Y23.46400
X12.34479 Y13.53260
X9.72859 Y10.91640
X8.00139 Y10.89100
X7.72199 Y10.76400
X7.46799 Y10.53540
X7.46799 Y10.48460
X7.36639 Y10.38300
X7.26479 Y10.02740
X7.26479 Y9.77340
X7.36639 Y9.41780
X7.64579 Y9.08760
X7.69659 Y9.08760
X7.79819 Y8.98600
X8.15379 Y8.88440
X10.26199 Y8.88440
X10.61759 Y8.98600
X10.64299 Y9.03680
X10.76999 Y9.08760
X14.17359 Y12.49120
X14.17359 Y12.54200
X14.27519 Y12.64360
X14.37679 Y12.99920
X14.35139 Y24.14980
X14.17359 Y24.50540
X10.89699 Y27.75660
X10.89699 Y31.61740
X10.84619 Y31.84600
X10.79539 Y31.89680
X10.79539 Y32.40480
X10.28739 Y32.40480
X10.23659 Y32.45560
X10.00799 Y32.50640
X9.42379 Y32.48100
G04 P0 ( dwell for no time -- G64 should not smooth over this point )
G00 Z8.00000 ( retract )

G00 X12.29399 Y32.48100 ( rapid move to begin. )
F25.00000
G01 Z-0.20000
G04 P0 ( dwell for no time -- G64 should not smooth over this point )
F50.00000
X12.29399 Y32.48100
X12.06539 Y32.45560
X11.78599 Y32.30320
X11.50659 Y31.97300
X11.40499 Y31.61740
X11.40499 Y31.36340
X11.50659 Y31.00780
X11.78599 Y30.67760
X12.06539 Y30.52520
X12.29399 Y30.47440
X15.08799 Y30.47440
X15.44359 Y30.57600
X15.46899 Y30.62680
X15.59599 Y30.67760
X15.77379 Y30.85540
X15.92619 Y31.13480
X15.97699 Y31.36340
X15.97699 Y31.61740
X15.87539 Y31.97300
X15.59599 Y32.30320
X15.31659 Y32.45560
X15.08799 Y32.50640
X12.29399 Y32.48100
G04 P0 ( dwell for no time -- G64 should not smooth over this point )
G00 Z8.00000 ( retract )

G00 X12.29399 Y40.10100 ( rapid move to begin. )
F25.00000
G01 Z-0.20000
G04 P0 ( dwell for no time -- G64 should not smooth over this point )
F50.00000
X12.29399 Y40.10100
X12.06539 Y40.07560
X11.78599 Y39.92320
X11.50659 Y39.59300
X11.40499 Y39.23740
X11.40499 Y38.98340
X11.50659 Y38.62780
X11.78599 Y38.29760
X12.06539 Y38.14520
X12.29399 Y38.09440
X15.08799 Y38.09440
X15.44359 Y38.19600
X15.46899 Y38.24680
X15.59599 Y38.29760
X15.77379 Y38.47540
X15.92619 Y38.75480
X15.97699 Y38.98340
X15.97699 Y39.23740
X15.87539 Y39.59300
X15.59599 Y39.92320
X15.31659 Y40.07560
X15.08799 Y40.12640
X12.29399 Y40.10100
G04 P0 ( dwell for no time -- G64 should not smooth over this point )
G00 Z8.00000 ( retract )

G00 X9.75399 Y40.10100 ( rapid move to begin. )
F25.00000
G01 Z-0.20000
G04 P0 ( dwell for no time -- G64 should not smooth over this point )
F50.00000
X9.75399 Y40.10100
X9.60159 Y40.10100
X9.47459 Y40.02480
X8.99199 Y40.02480
X8.99199 Y39.59300
X8.91579 Y39.46600
X8.86499 Y39.23740
X8.86499 Y36.62120
X6.19799 Y33.97960
X6.04559 Y33.70020
X5.99479 Y33.47160
X5.99479 Y26.28340
X6.04559 Y26.05480
X6.19799 Y25.77540
X9.80479 Y22.19400
X9.80479 Y14.11680
X9.14439 Y13.45640
X8.00139 Y13.43100
X7.64579 Y13.25320
X7.36639 Y12.92300
X7.26479 Y12.56740
X7.26479 Y12.31340
X7.36639 Y11.95780
X7.64579 Y11.62760
X7.69659 Y11.62760
X7.79819 Y11.52600
X8.15379 Y11.42440
X9.67779 Y11.42440
X10.03339 Y11.52600
X10.05879 Y11.57680
X10.18579 Y11.62760
X11.63359 Y13.07540
X11.63359 Y13.12620
X11.73519 Y13.22780
X11.83679 Y13.58340
X11.81139 Y22.87980
X11.63359 Y23.23540
X8.02679 Y26.81680
X8.02679 Y32.93820
X10.69379 Y35.57980
X10.69379 Y35.63060
X10.79539 Y35.73220
X10.89699 Y36.08780
X10.89699 Y39.23740
X10.84619 Y39.46600
X10.79539 Y39.51680
X10.79539 Y40.02480
X10.28739 Y40.02480
X10.23659 Y40.07560
X10.00799 Y40.12640
X9.75399 Y40.10100
G04 P0 ( dwell for no time -- G64 should not smooth over this point )
G00 Z8.00000 ( retract )

G00 X7.89979 Y47.72100 ( rapid move to begin. )
F25.00000
G01 Z-0.20000
G04 P0 ( dwell for no time -- G64 should not smooth over this point )
F50.00000
X7.89979 Y47.72100
X7.67119 Y47.69560
X7.39179 Y47.54320
X3.65799 Y43.80940
X3.60719 Y43.68240
X3.55639 Y43.65700
X3.45479 Y43.30140
X3.45479 Y18.66340
X3.50559 Y18.43480
X3.65799 Y18.15540
X4.72479 Y17.11400
X4.72479 Y4.69340
X4.77559 Y4.46480
X4.92799 Y4.18540
X5.25819 Y3.90600
X5.61379 Y3.80440
X6.02019 Y3.82980
X6.37579 Y4.00760
X6.65519 Y4.33780
X6.75679 Y4.69340
X6.75679 Y16.50440
X8.40779 Y16.50440
X8.76339 Y16.60600
X8.86499 Y16.70760
X8.91579 Y16.70760
X9.19519 Y17.03780
X9.19519 Y17.11400
X9.27139 Y17.24100
X9.29679 Y17.64740
X9.19519 Y18.00300
X9.14439 Y18.02840
X9.09359 Y18.15540
X8.76339 Y18.43480
X8.40779 Y18.53640
X6.14719 Y18.53640
X5.48679 Y19.19680
X5.48679 Y42.76800
X8.43319 Y45.71440
X11.15099 Y45.73980
X11.43039 Y45.86680
X11.68439 Y46.09540
X11.73519 Y46.22240
X11.78599 Y46.24780
X11.88759 Y46.60340
X11.88759 Y46.85740
X11.78599 Y47.21300
X11.50659 Y47.54320
X11.17639 Y47.72100
X11.02399 Y47.74640
X7.89979 Y47.72100
G04 P0 ( dwell for no time -- G64 should not smooth over this point )
G00 Z8.00000 ( retract )

G00 X5.61379 Y3.27100 ( rapid move to begin. )
F25.00000
G01 Z-0.20000
G04 P0 ( dwell for no time -- G64 should not smooth over this point )
F50.00000
X5.61379 Y3.27100
X5.38519 Y3.24560
X5.10579 Y3.09320
X4.82639 Y2.76300
X4.72479 Y2.40740
X4.72479 Y2.15340
X4.82639 Y1.79780
X5.10579 Y1.46760
X5.38519 Y1.31520
X5.61379 Y1.26440
X8.40779 Y1.26440
X8.63639 Y1.31520
X8.91579 Y1.46760
X9.09359 Y1.64540
X9.24599 Y1.92480
X9.29679 Y2.15340
X9.29679 Y2.40740
X9.19519 Y2.76300
X8.91579 Y3.09320
X8.63639 Y3.24560
X8.40779 Y3.29640
X5.61379 Y3.27100

G04 P0 ( dwell for no time -- G64 should not smooth over this point )
G00 Z20.000 ( retract )

M5 ( Spindle off. )
M9 ( Coolant off. )
M2 ( Program end. )

