( pcb2gcode 1.3.2 )
( Software-independent Gcode )

( This file uses only one drill bit. Forced by 'onedrill' option )

G94       (Millimeters per minute feed rate.)
G21       (Units == Millimeters.)
G91.1     (Incremental arc distance mode.)
G90       (Absolute coordinates.)
S1000     (RPM spindle speed.)

G00 Z20.00000 (Retract)
T1
M5      (Spindle stop.)
(MSG, Change tool bit to drill size 0.70000 mm)
M6      (Tool change.)
M0      (Temporary machine stop.)
M3      (Spindle on clockwise.)

F3.00000
G0 X5.74079 Y2.28080
G1 Z0.00000
G1 Z8.00000
G0 X8.28079 Y2.28080
G1 Z0.00000
G1 Z8.00000
G0 X8.28079 Y4.82080
G1 Z0.00000
G1 Z8.00000
G0 X8.28079 Y7.36080
G1 Z0.00000
G1 Z8.00000
G0 X8.28079 Y9.90080
G1 Z0.00000
G1 Z8.00000
G0 X8.28079 Y12.44080
G1 Z0.00000
G1 Z8.00000
G0 X8.28079 Y14.98080
G1 Z0.00000
G1 Z8.00000
G0 X8.28079 Y17.52080
G1 Z0.00000
G1 Z8.00000
G0 X8.28079 Y20.06080
G1 Z0.00000
G1 Z8.00000
G0 X9.86479 Y31.49080
G1 Z0.00000
G1 Z8.00000
G0 X12.40479 Y31.49080
G1 Z0.00000
G1 Z8.00000
G0 X14.94479 Y31.49080
G1 Z0.00000
G1 Z8.00000
G0 X17.48479 Y31.49080
G1 Z0.00000
G1 Z8.00000
G0 X20.98079 Y31.49080
G1 Z0.00000
G1 Z8.00000
G0 X23.52079 Y31.49080
G1 Z0.00000
G1 Z8.00000
G0 X26.06079 Y31.49080
G1 Z0.00000
G1 Z8.00000
G0 X28.60079 Y31.49080
G1 Z0.00000
G1 Z8.00000
G0 X28.60079 Y39.11080
G1 Z0.00000
G1 Z8.00000
G0 X26.06079 Y39.11080
G1 Z0.00000
G1 Z8.00000
G0 X23.52079 Y39.11080
G1 Z0.00000
G1 Z8.00000
G0 X20.98079 Y39.11080
G1 Z0.00000
G1 Z8.00000
G0 X17.48479 Y39.11080
G1 Z0.00000
G1 Z8.00000
G0 X14.94479 Y39.11080
G1 Z0.00000
G1 Z8.00000
G0 X12.40479 Y39.11080
G1 Z0.00000
G1 Z8.00000
G0 X9.86479 Y39.11080
G1 Z0.00000
G1 Z8.00000
G0 X10.86079 Y46.73080
G1 Z0.00000
G1 Z8.00000
G0 X13.36079 Y46.73080
G1 Z0.00000
G1 Z8.00000
G0 X20.96079 Y56.69080
G1 Z0.00000
G1 Z8.00000
G0 X28.96079 Y56.69080
G1 Z0.00000
G1 Z8.00000
G0 X29.87079 Y46.73080
G1 Z0.00000
G1 Z8.00000
G0 X25.87079 Y46.73080
G1 Z0.00000
G1 Z8.00000
G0 X31.14079 Y20.06080
G1 Z0.00000
G1 Z8.00000
G0 X31.14079 Y17.52080
G1 Z0.00000
G1 Z8.00000
G0 X31.14079 Y14.98080
G1 Z0.00000
G1 Z8.00000
G0 X31.14079 Y12.44080
G1 Z0.00000
G1 Z8.00000
G0 X31.14079 Y9.90080
G1 Z0.00000
G1 Z8.00000
G0 X31.14079 Y7.36080
G1 Z0.00000
G1 Z8.00000
G0 X31.14079 Y4.82080
G1 Z0.00000
G1 Z8.00000
G0 X31.14079 Y2.28080
G1 Z0.00000
G1 Z8.00000
G0 X5.74079 Y4.82080
G1 Z0.00000
G1 Z8.00000
G0 X4.47079 Y94.99080
G1 Z0.00000
G1 Z8.00000
G0 X18.21079 Y95.19080
G1 Z0.00000
G1 Z8.00000
G0 X28.96079 Y95.19080
G1 Z0.00000
G1 Z8.00000
G0 X35.58579 Y94.99080
G1 Z0.00000
G1 Z8.00000

G00 Z20.000 ( All done -- retract )

M5      (Spindle off.)
M9      (Coolant off.)
M2      (Program end.)

