( pcb2gcode 1.3.2 )
( Software-independent Gcode )

G94 ( Millimeters per minute feed rate. )
G21 ( Units == Millimeters. )

G90 ( Absolute coordinates. )
S1000 ( RPM spindle speed. )
F50.00000 ( Feedrate. )

F50.00000 ( Feedrate. )
M3 ( Spindle on clockwise. )
G04 P0 ( dwell for no time -- G64 should not smooth over this point )
G00 Z8.00000 ( retract )

G00 X7.05600 Y96.18420 ( rapid move to begin. )
F25.00000
G01 Z-0.20000
G04 P0 ( dwell for no time -- G64 should not smooth over this point )
F50.00000
X7.05600 Y96.18420
X7.20840 Y96.18420
X7.33540 Y96.10800
X7.41160 Y96.10800
X7.74180 Y95.82860
X7.91960 Y95.47300
X7.94500 Y95.32060
X7.91960 Y94.91420
X7.74180 Y94.55860
X7.36080 Y94.17760
X7.23380 Y94.12680
X7.20840 Y94.07600
X6.85280 Y93.97440
X6.44640 Y93.99980
X6.31940 Y94.07600
X6.24320 Y94.07600
X6.06540 Y94.22840
X6.01460 Y94.22840
X5.83680 Y94.43160
X5.70980 Y94.76180
X5.70980 Y95.24440
X5.88760 Y95.65080
X6.01460 Y95.77780
X6.14160 Y95.82860
X6.29400 Y96.00640
X6.64960 Y96.18420
X6.80200 Y96.20960
X7.05600 Y96.18420
G04 P0 ( dwell for no time -- G64 should not smooth over this point )
G00 Z8.00000 ( retract )

G00 X13.38060 Y96.13340 ( rapid move to begin. )
F25.00000
G01 Z-0.20000
G04 P0 ( dwell for no time -- G64 should not smooth over this point )
F50.00000
X13.38060 Y96.13340
X13.73620 Y96.08260
X13.81240 Y96.00640
X13.99020 Y95.93020
X14.11720 Y95.80320
X14.24420 Y95.54920
X14.29500 Y95.16820
X14.21880 Y94.78720
X13.99020 Y94.48240
X13.66000 Y94.30460
X13.30440 Y94.25380
X12.94880 Y94.33000
X12.87260 Y94.40620
X12.69480 Y94.48240
X12.56780 Y94.60940
X12.41540 Y94.93960
X12.39000 Y95.24440
X12.46620 Y95.62540
X12.69480 Y95.93020
X13.02500 Y96.10800
X13.30440 Y96.15880
X13.38060 Y96.13340
G04 P0 ( dwell for no time -- G64 should not smooth over this point )
G00 Z8.00000 ( retract )

G00 X19.52740 Y97.55580 ( rapid move to begin. )
F25.00000
G01 Z-0.20000
G04 P0 ( dwell for no time -- G64 should not smooth over this point )
F50.00000
X19.52740 Y97.55580
X19.52740 Y88.76740
X40.40620 Y88.76740
X40.40620 Y88.53880
X1.95060 Y88.53880
X1.89980 Y88.58960
X1.89980 Y88.71660
X1.95060 Y88.76740
X19.29880 Y88.76740
X19.29880 Y97.58120
X19.52740 Y97.55580
G04 P0 ( dwell for no time -- G64 should not smooth over this point )
G00 Z8.00000 ( retract )

G00 X24.12480 Y96.13340 ( rapid move to begin. )
F25.00000
G01 Z-0.20000
G04 P0 ( dwell for no time -- G64 should not smooth over this point )
F50.00000
X24.12480 Y96.13340
X24.48040 Y96.08260
X24.55660 Y96.00640
X24.73440 Y95.93020
X24.86140 Y95.80320
X24.98840 Y95.54920
X25.03920 Y95.16820
X24.96300 Y94.78720
X24.73440 Y94.48240
X24.40420 Y94.30460
X24.04860 Y94.25380
X23.69300 Y94.33000
X23.61680 Y94.40620
X23.43900 Y94.48240
X23.31200 Y94.60940
X23.15960 Y94.93960
X23.13420 Y95.24440
X23.21040 Y95.62540
X23.43900 Y95.93020
X23.76920 Y96.10800
X24.04860 Y96.15880
X24.12480 Y96.13340
G04 P0 ( dwell for no time -- G64 should not smooth over this point )
G00 Z8.00000 ( retract )

G00 X37.76460 Y96.18420 ( rapid move to begin. )
F25.00000
G01 Z-0.20000
G04 P0 ( dwell for no time -- G64 should not smooth over this point )
F50.00000
X37.76460 Y96.18420
X37.91700 Y96.18420
X38.04400 Y96.10800
X38.12020 Y96.10800
X38.14560 Y96.05720
X38.27260 Y96.00640
X38.47580 Y95.77780
X38.52660 Y95.77780
X38.75520 Y95.47300
X38.85680 Y95.11740
X38.83140 Y94.71100
X38.65360 Y94.35540
X38.32340 Y94.07600
X37.96780 Y93.97440
X37.56140 Y93.99980
X37.43440 Y94.07600
X37.35820 Y94.07600
X37.33280 Y94.12680
X37.12960 Y94.22840
X36.72320 Y94.71100
X36.62160 Y95.06660
X36.62160 Y95.32060
X36.72320 Y95.67620
X37.00260 Y96.00640
X37.35820 Y96.18420
X37.51060 Y96.20960
X37.76460 Y96.18420
G04 P0 ( dwell for no time -- G64 should not smooth over this point )
G00 Z8.00000 ( retract )

G00 X40.40620 Y88.10700 ( rapid move to begin. )
F25.00000
G01 Z-0.20000
G04 P0 ( dwell for no time -- G64 should not smooth over this point )
F50.00000
X40.40620 Y88.10700
X40.40620 Y87.90380
X1.95060 Y87.90380
X1.89980 Y87.95460
X1.89980 Y88.08160
X1.95060 Y88.13240
X40.40620 Y88.10700
G04 P0 ( dwell for no time -- G64 should not smooth over this point )
G00 Z8.00000 ( retract )

G00 X21.38160 Y57.62700 ( rapid move to begin. )
F25.00000
G01 Z-0.20000
G04 P0 ( dwell for no time -- G64 should not smooth over this point )
F50.00000
X21.38160 Y57.62700
X21.73720 Y57.57620
X21.81340 Y57.50000
X21.99120 Y57.42380
X22.11820 Y57.29680
X22.24520 Y57.04280
X22.29600 Y56.66180
X22.21980 Y56.28080
X21.99120 Y55.97600
X21.66100 Y55.79820
X21.30540 Y55.74740
X20.94980 Y55.82360
X20.74660 Y55.97600
X20.69580 Y55.97600
X20.56880 Y56.10300
X20.41640 Y56.43320
X20.39100 Y56.73800
X20.46720 Y57.11900
X20.69580 Y57.42380
X21.02600 Y57.60160
X21.30540 Y57.65240
X21.38160 Y57.62700
G04 P0 ( dwell for no time -- G64 should not smooth over this point )
G00 Z8.00000 ( retract )

G00 X13.38060 Y57.62700 ( rapid move to begin. )
F25.00000
G01 Z-0.20000
G04 P0 ( dwell for no time -- G64 should not smooth over this point )
F50.00000
X13.38060 Y57.62700
X13.73620 Y57.57620
X13.81240 Y57.50000
X13.99020 Y57.42380
X14.11720 Y57.29680
X14.24420 Y57.04280
X14.29500 Y56.66180
X14.21880 Y56.28080
X13.99020 Y55.97600
X13.66000 Y55.79820
X13.30440 Y55.74740
X12.94880 Y55.82360
X12.87260 Y55.89980
X12.69480 Y55.97600
X12.56780 Y56.10300
X12.41540 Y56.43320
X12.39000 Y56.73800
X12.46620 Y57.11900
X12.69480 Y57.42380
X13.02500 Y57.60160
X13.30440 Y57.65240
X13.38060 Y57.62700
G04 P0 ( dwell for no time -- G64 should not smooth over this point )
G00 Z8.00000 ( retract )

G00 X13.22820 Y47.51780 ( rapid move to begin. )
F25.00000
G01 Z-0.20000
G04 P0 ( dwell for no time -- G64 should not smooth over this point )
F50.00000
X13.22820 Y47.51780
X13.22820 Y45.94300
X11.62800 Y45.94300
X11.62800 Y47.54320
X13.22820 Y47.51780
G04 P0 ( dwell for no time -- G64 should not smooth over this point )
G00 Z8.00000 ( retract )

G00 X16.58100 Y47.51780 ( rapid move to begin. )
F25.00000
G01 Z-0.20000
G04 P0 ( dwell for no time -- G64 should not smooth over this point )
F50.00000
X16.58100 Y47.51780
X16.73340 Y47.51780
X16.88580 Y47.39080
X16.98740 Y47.36540
X16.98740 Y47.31460
X17.13980 Y47.16220
X17.21600 Y46.95900
X17.21600 Y46.52720
X17.13980 Y46.32400
X17.06360 Y46.27320
X16.98740 Y46.12080
X16.88580 Y46.09540
X16.73340 Y45.96840
X16.09840 Y45.96840
X16.07300 Y46.01920
X15.84440 Y46.12080
X15.84440 Y46.17160
X15.76820 Y46.22240
X15.76820 Y46.27320
X15.69200 Y46.32400
X15.64120 Y46.42560
X15.61580 Y46.52720
X15.64120 Y47.06060
X15.69200 Y47.16220
X15.76820 Y47.21300
X15.76820 Y47.26380
X15.84440 Y47.31460
X15.84440 Y47.36540
X15.94600 Y47.39080
X16.09840 Y47.51780
X16.25080 Y47.54320
X16.58100 Y47.51780
G04 P0 ( dwell for no time -- G64 should not smooth over this point )
G00 Z8.00000 ( retract )

G00 X16.37780 Y39.99940 ( rapid move to begin. )
F25.00000
G01 Z-0.20000
G04 P0 ( dwell for no time -- G64 should not smooth over this point )
F50.00000
X16.37780 Y39.99940
X16.53020 Y39.99940
X16.70800 Y39.92320
X17.01280 Y39.66920
X17.13980 Y39.36440
X17.13980 Y38.88180
X17.01280 Y38.57700
X16.70800 Y38.32300
X16.37780 Y38.22140
X15.94600 Y38.24680
X15.64120 Y38.39920
X15.46340 Y38.57700
X15.33640 Y38.88180
X15.33640 Y39.36440
X15.46340 Y39.66920
X15.64120 Y39.84700
X15.94600 Y39.99940
X16.37780 Y39.99940
G04 P0 ( dwell for no time -- G64 should not smooth over this point )
G00 Z8.00000 ( retract )

G00 X14.59980 Y39.99940 ( rapid move to begin. )
F25.00000
G01 Z-0.20000
G04 P0 ( dwell for no time -- G64 should not smooth over this point )
F50.00000
X14.59980 Y39.99940
X14.59980 Y38.22140
X12.79640 Y38.22140
X12.79640 Y40.02480
X14.59980 Y39.99940
G04 P0 ( dwell for no time -- G64 should not smooth over this point )
G00 Z8.00000 ( retract )

G00 X18.94320 Y39.79620 ( rapid move to begin. )
F25.00000
G01 Z-0.20000
G04 P0 ( dwell for no time -- G64 should not smooth over this point )
F50.00000
X18.94320 Y39.79620
X19.07020 Y39.79620
X19.09560 Y39.74540
X19.24800 Y39.69460
X19.42580 Y39.46600
X19.47660 Y39.26280
X19.47660 Y38.98340
X19.42580 Y38.78020
X19.24800 Y38.55160
X19.09560 Y38.50080
X19.07020 Y38.45000
X18.48600 Y38.45000
X18.46060 Y38.50080
X18.30820 Y38.55160
X18.10500 Y38.83100
X18.10500 Y39.41520
X18.23200 Y39.56760
X18.23200 Y39.61840
X18.30820 Y39.69460
X18.46060 Y39.74540
X18.48600 Y39.79620
X18.94320 Y39.79620
G04 P0 ( dwell for no time -- G64 should not smooth over this point )
G00 Z8.00000 ( retract )

G00 X21.45780 Y39.79620 ( rapid move to begin. )
F25.00000
G01 Z-0.20000
G04 P0 ( dwell for no time -- G64 should not smooth over this point )
F50.00000
X21.45780 Y39.79620
X21.66100 Y39.77080
X21.68640 Y39.72000
X21.81340 Y39.66920
X21.88960 Y39.59300
X21.94040 Y39.44060
X21.99120 Y39.41520
X21.99120 Y38.83100
X21.94040 Y38.80560
X21.88960 Y38.65320
X21.66100 Y38.47540
X21.45780 Y38.42460
X21.17840 Y38.42460
X20.97520 Y38.47540
X20.74660 Y38.65320
X20.69580 Y38.80560
X20.64500 Y38.83100
X20.61960 Y38.95800
X20.64500 Y39.41520
X20.69580 Y39.44060
X20.74660 Y39.59300
X20.97520 Y39.77080
X21.17840 Y39.82160
X21.45780 Y39.79620
G04 P0 ( dwell for no time -- G64 should not smooth over this point )
G00 Z8.00000 ( retract )

G00 X24.93760 Y39.79620 ( rapid move to begin. )
F25.00000
G01 Z-0.20000
G04 P0 ( dwell for no time -- G64 should not smooth over this point )
F50.00000
X24.93760 Y39.79620
X25.14080 Y39.77080
X25.16620 Y39.72000
X25.29320 Y39.66920
X25.36940 Y39.59300
X25.42020 Y39.44060
X25.47100 Y39.41520
X25.49640 Y39.28820
X25.47100 Y38.83100
X25.42020 Y38.80560
X25.36940 Y38.65320
X25.14080 Y38.47540
X24.93760 Y38.42460
X24.65820 Y38.42460
X24.45500 Y38.47540
X24.22640 Y38.65320
X24.17560 Y38.80560
X24.12480 Y38.83100
X24.12480 Y39.41520
X24.17560 Y39.44060
X24.22640 Y39.59300
X24.45500 Y39.77080
X24.65820 Y39.82160
X24.93760 Y39.79620
G04 P0 ( dwell for no time -- G64 should not smooth over this point )
G00 Z8.00000 ( retract )

G00 X27.50300 Y39.79620 ( rapid move to begin. )
F25.00000
G01 Z-0.20000
G04 P0 ( dwell for no time -- G64 should not smooth over this point )
F50.00000
X27.50300 Y39.79620
X27.63000 Y39.79620
X27.65540 Y39.74540
X27.80780 Y39.69460
X27.98560 Y39.46600
X28.03640 Y39.26280
X28.03640 Y38.98340
X27.98560 Y38.78020
X27.80780 Y38.55160
X27.65540 Y38.50080
X27.63000 Y38.45000
X27.04580 Y38.45000
X27.02040 Y38.50080
X26.81720 Y38.60240
X26.66480 Y38.83100
X26.63940 Y38.98340
X26.66480 Y39.41520
X26.81720 Y39.64380
X27.02040 Y39.74540
X27.04580 Y39.79620
X27.50300 Y39.79620
G04 P0 ( dwell for no time -- G64 should not smooth over this point )
G00 Z8.00000 ( retract )

G00 X30.01760 Y39.99940 ( rapid move to begin. )
F25.00000
G01 Z-0.20000
G04 P0 ( dwell for no time -- G64 should not smooth over this point )
F50.00000
X30.01760 Y39.99940
X30.17000 Y39.99940
X30.34780 Y39.92320
X30.65260 Y39.66920
X30.77960 Y39.36440
X30.77960 Y38.88180
X30.65260 Y38.57700
X30.34780 Y38.32300
X30.01760 Y38.22140
X29.58580 Y38.24680
X29.28100 Y38.39920
X29.10320 Y38.57700
X28.97620 Y38.88180
X28.97620 Y39.36440
X29.10320 Y39.66920
X29.28100 Y39.84700
X29.58580 Y39.99940
X30.01760 Y39.99940
G04 P0 ( dwell for no time -- G64 should not smooth over this point )
G00 Z8.00000 ( retract )

G00 X33.31960 Y39.99940 ( rapid move to begin. )
F25.00000
G01 Z-0.20000
G04 P0 ( dwell for no time -- G64 should not smooth over this point )
F50.00000
X33.31960 Y39.99940
X33.31960 Y38.22140
X31.51620 Y38.22140
X31.51620 Y40.02480
X33.31960 Y39.99940
G04 P0 ( dwell for no time -- G64 should not smooth over this point )
G00 Z8.00000 ( retract )

G00 X33.31960 Y32.37940 ( rapid move to begin. )
F25.00000
G01 Z-0.20000
G04 P0 ( dwell for no time -- G64 should not smooth over this point )
F50.00000
X33.31960 Y32.37940
X33.31960 Y30.60140
X31.51620 Y30.60140
X31.51620 Y32.40480
X33.31960 Y32.37940
G04 P0 ( dwell for no time -- G64 should not smooth over this point )
G00 Z8.00000 ( retract )

G00 X30.01760 Y32.37940 ( rapid move to begin. )
F25.00000
G01 Z-0.20000
G04 P0 ( dwell for no time -- G64 should not smooth over this point )
F50.00000
X30.01760 Y32.37940
X30.17000 Y32.37940
X30.34780 Y32.30320
X30.65260 Y32.04920
X30.77960 Y31.74440
X30.77960 Y31.26180
X30.65260 Y30.95700
X30.34780 Y30.70300
X30.01760 Y30.60140
X29.58580 Y30.62680
X29.28100 Y30.77920
X29.10320 Y30.95700
X28.97620 Y31.26180
X28.97620 Y31.74440
X29.10320 Y32.04920
X29.28100 Y32.22700
X29.58580 Y32.37940
X29.73820 Y32.40480
X30.01760 Y32.37940
G04 P0 ( dwell for no time -- G64 should not smooth over this point )
G00 Z8.00000 ( retract )

G00 X27.50300 Y32.17620 ( rapid move to begin. )
F25.00000
G01 Z-0.20000
G04 P0 ( dwell for no time -- G64 should not smooth over this point )
F50.00000
X27.50300 Y32.17620
X27.63000 Y32.17620
X27.65540 Y32.12540
X27.80780 Y32.07460
X27.98560 Y31.84600
X28.03640 Y31.64280
X28.03640 Y31.36340
X27.98560 Y31.16020
X27.80780 Y30.93160
X27.65540 Y30.88080
X27.63000 Y30.83000
X27.50300 Y30.80460
X27.04580 Y30.83000
X27.02040 Y30.88080
X26.81720 Y30.98240
X26.66480 Y31.21100
X26.63940 Y31.36340
X26.66480 Y31.79520
X26.79180 Y31.94760
X26.79180 Y31.99840
X26.86800 Y32.07460
X27.02040 Y32.12540
X27.04580 Y32.17620
X27.50300 Y32.17620
G04 P0 ( dwell for no time -- G64 should not smooth over this point )
G00 Z8.00000 ( retract )

G00 X24.93760 Y32.17620 ( rapid move to begin. )
F25.00000
G01 Z-0.20000
G04 P0 ( dwell for no time -- G64 should not smooth over this point )
F50.00000
X24.93760 Y32.17620
X25.14080 Y32.15080
X25.24240 Y32.04920
X25.29320 Y32.04920
X25.36940 Y31.97300
X25.42020 Y31.82060
X25.47100 Y31.79520
X25.49640 Y31.66820
X25.47100 Y31.21100
X25.42020 Y31.18560
X25.36940 Y31.03320
X25.14080 Y30.85540
X24.93760 Y30.80460
X24.53120 Y30.83000
X24.30260 Y30.95700
X24.22640 Y31.03320
X24.17560 Y31.18560
X24.12480 Y31.21100
X24.12480 Y31.79520
X24.17560 Y31.82060
X24.22640 Y31.97300
X24.45500 Y32.15080
X24.65820 Y32.20160
X24.93760 Y32.17620
G04 P0 ( dwell for no time -- G64 should not smooth over this point )
G00 Z8.00000 ( retract )

G00 X21.45780 Y32.17620 ( rapid move to begin. )
F25.00000
G01 Z-0.20000
G04 P0 ( dwell for no time -- G64 should not smooth over this point )
F50.00000
X21.45780 Y32.17620
X21.66100 Y32.15080
X21.68640 Y32.10000
X21.81340 Y32.04920
X21.88960 Y31.97300
X21.94040 Y31.82060
X21.99120 Y31.79520
X21.99120 Y31.21100
X21.94040 Y31.18560
X21.88960 Y31.03320
X21.66100 Y30.85540
X21.45780 Y30.80460
X21.05140 Y30.83000
X20.82280 Y30.95700
X20.74660 Y31.03320
X20.69580 Y31.18560
X20.64500 Y31.21100
X20.61960 Y31.33800
X20.64500 Y31.79520
X20.69580 Y31.82060
X20.74660 Y31.97300
X20.97520 Y32.15080
X21.17840 Y32.20160
X21.45780 Y32.17620
G04 P0 ( dwell for no time -- G64 should not smooth over this point )
G00 Z8.00000 ( retract )

G00 X18.94320 Y32.17620 ( rapid move to begin. )
F25.00000
G01 Z-0.20000
G04 P0 ( dwell for no time -- G64 should not smooth over this point )
F50.00000
X18.94320 Y32.17620
X19.07020 Y32.17620
X19.09560 Y32.12540
X19.24800 Y32.07460
X19.42580 Y31.84600
X19.47660 Y31.64280
X19.47660 Y31.36340
X19.42580 Y31.16020
X19.24800 Y30.93160
X19.09560 Y30.88080
X19.07020 Y30.83000
X18.94320 Y30.80460
X18.48600 Y30.83000
X18.46060 Y30.88080
X18.30820 Y30.93160
X18.10500 Y31.21100
X18.10500 Y31.79520
X18.23200 Y31.94760
X18.23200 Y31.99840
X18.30820 Y32.07460
X18.46060 Y32.12540
X18.48600 Y32.17620
X18.94320 Y32.17620
G04 P0 ( dwell for no time -- G64 should not smooth over this point )
G00 Z8.00000 ( retract )

G00 X16.37780 Y32.37940 ( rapid move to begin. )
F25.00000
G01 Z-0.20000
G04 P0 ( dwell for no time -- G64 should not smooth over this point )
F50.00000
X16.37780 Y32.37940
X16.53020 Y32.37940
X16.70800 Y32.30320
X17.01280 Y32.04920
X17.13980 Y31.74440
X17.13980 Y31.26180
X17.01280 Y30.95700
X16.70800 Y30.70300
X16.37780 Y30.60140
X15.94600 Y30.62680
X15.64120 Y30.77920
X15.46340 Y30.95700
X15.33640 Y31.26180
X15.33640 Y31.74440
X15.46340 Y32.04920
X15.64120 Y32.22700
X15.94600 Y32.37940
X16.09840 Y32.40480
X16.37780 Y32.37940
G04 P0 ( dwell for no time -- G64 should not smooth over this point )
G00 Z8.00000 ( retract )

G00 X14.59980 Y32.37940 ( rapid move to begin. )
F25.00000
G01 Z-0.20000
G04 P0 ( dwell for no time -- G64 should not smooth over this point )
F50.00000
X14.59980 Y32.37940
X14.59980 Y30.60140
X12.79640 Y30.60140
X12.79640 Y32.40480
X14.59980 Y32.37940
G04 P0 ( dwell for no time -- G64 should not smooth over this point )
G00 Z8.00000 ( retract )

G00 X11.29780 Y20.94940 ( rapid move to begin. )
F25.00000
G01 Z-0.20000
G04 P0 ( dwell for no time -- G64 should not smooth over this point )
F50.00000
X11.29780 Y20.94940
X11.45020 Y20.94940
X11.62800 Y20.87320
X11.93280 Y20.61920
X12.05980 Y20.31440
X12.05980 Y19.83180
X11.93280 Y19.52700
X11.62800 Y19.27300
X11.29780 Y19.17140
X10.86600 Y19.19680
X10.56120 Y19.34920
X10.38340 Y19.52700
X10.25640 Y19.83180
X10.25640 Y20.31440
X10.38340 Y20.61920
X10.56120 Y20.79700
X10.86600 Y20.94940
X11.29780 Y20.94940
G04 P0 ( dwell for no time -- G64 should not smooth over this point )
G00 Z8.00000 ( retract )

G00 X11.29780 Y18.40940 ( rapid move to begin. )
F25.00000
G01 Z-0.20000
G04 P0 ( dwell for no time -- G64 should not smooth over this point )
F50.00000
X11.29780 Y18.40940
X11.45020 Y18.40940
X11.62800 Y18.33320
X11.93280 Y18.07920
X12.05980 Y17.77440
X12.05980 Y17.29180
X11.93280 Y16.98700
X11.62800 Y16.73300
X11.29780 Y16.63140
X10.86600 Y16.65680
X10.56120 Y16.80920
X10.38340 Y16.98700
X10.25640 Y17.29180
X10.25640 Y17.77440
X10.38340 Y18.07920
X10.56120 Y18.25700
X10.86600 Y18.40940
X11.29780 Y18.40940
G04 P0 ( dwell for no time -- G64 should not smooth over this point )
G00 Z8.00000 ( retract )

G00 X11.29780 Y15.86940 ( rapid move to begin. )
F25.00000
G01 Z-0.20000
G04 P0 ( dwell for no time -- G64 should not smooth over this point )
F50.00000
X11.29780 Y15.86940
X11.45020 Y15.86940
X11.62800 Y15.79320
X11.93280 Y15.53920
X12.05980 Y15.23440
X12.05980 Y14.75180
X11.93280 Y14.44700
X11.62800 Y14.19300
X11.29780 Y14.09140
X10.86600 Y14.11680
X10.56120 Y14.26920
X10.38340 Y14.44700
X10.25640 Y14.75180
X10.25640 Y15.23440
X10.38340 Y15.53920
X10.56120 Y15.71700
X10.86600 Y15.86940
X11.01840 Y15.89480
X11.29780 Y15.86940
G04 P0 ( dwell for no time -- G64 should not smooth over this point )
G00 Z8.00000 ( retract )

G00 X11.29780 Y13.32940 ( rapid move to begin. )
F25.00000
G01 Z-0.20000
G04 P0 ( dwell for no time -- G64 should not smooth over this point )
F50.00000
X11.29780 Y13.32940
X11.45020 Y13.32940
X11.62800 Y13.25320
X11.93280 Y12.99920
X12.05980 Y12.69440
X12.05980 Y12.21180
X11.93280 Y11.90700
X11.62800 Y11.65300
X11.29780 Y11.55140
X10.86600 Y11.57680
X10.56120 Y11.72920
X10.38340 Y11.90700
X10.25640 Y12.21180
X10.25640 Y12.69440
X10.38340 Y12.99920
X10.56120 Y13.17700
X10.86600 Y13.32940
X11.01840 Y13.35480
X11.29780 Y13.32940
G04 P0 ( dwell for no time -- G64 should not smooth over this point )
G00 Z8.00000 ( retract )

G00 X11.29780 Y10.78940 ( rapid move to begin. )
F25.00000
G01 Z-0.20000
G04 P0 ( dwell for no time -- G64 should not smooth over this point )
F50.00000
X11.29780 Y10.78940
X11.45020 Y10.78940
X11.62800 Y10.71320
X11.93280 Y10.45920
X12.05980 Y10.15440
X12.05980 Y9.67180
X11.93280 Y9.36700
X11.62800 Y9.11300
X11.29780 Y9.01140
X10.86600 Y9.03680
X10.56120 Y9.18920
X10.38340 Y9.36700
X10.25640 Y9.67180
X10.25640 Y10.15440
X10.38340 Y10.45920
X10.56120 Y10.63700
X10.86600 Y10.78940
X11.01840 Y10.81480
X11.29780 Y10.78940
G04 P0 ( dwell for no time -- G64 should not smooth over this point )
G00 Z8.00000 ( retract )

G00 X11.29780 Y8.24940 ( rapid move to begin. )
F25.00000
G01 Z-0.20000
G04 P0 ( dwell for no time -- G64 should not smooth over this point )
F50.00000
X11.29780 Y8.24940
X11.45020 Y8.24940
X11.62800 Y8.17320
X11.93280 Y7.91920
X12.05980 Y7.61440
X12.05980 Y7.13180
X11.93280 Y6.82700
X11.62800 Y6.57300
X11.29780 Y6.47140
X10.86600 Y6.49680
X10.56120 Y6.64920
X10.38340 Y6.82700
X10.25640 Y7.13180
X10.25640 Y7.61440
X10.38340 Y7.91920
X10.56120 Y8.09700
X10.86600 Y8.24940
X11.01840 Y8.27480
X11.29780 Y8.24940
G04 P0 ( dwell for no time -- G64 should not smooth over this point )
G00 Z8.00000 ( retract )

G00 X11.29780 Y5.70940 ( rapid move to begin. )
F25.00000
G01 Z-0.20000
G04 P0 ( dwell for no time -- G64 should not smooth over this point )
F50.00000
X11.29780 Y5.70940
X11.45020 Y5.70940
X11.62800 Y5.63320
X11.93280 Y5.37920
X12.05980 Y5.07440
X12.05980 Y4.59180
X11.93280 Y4.28700
X11.62800 Y4.03300
X11.29780 Y3.93140
X10.86600 Y3.95680
X10.56120 Y4.10920
X10.38340 Y4.28700
X10.25640 Y4.59180
X10.25640 Y5.07440
X10.38340 Y5.37920
X10.56120 Y5.55700
X10.86600 Y5.70940
X11.29780 Y5.70940
G04 P0 ( dwell for no time -- G64 should not smooth over this point )
G00 Z8.00000 ( retract )

G00 X11.29780 Y3.16940 ( rapid move to begin. )
F25.00000
G01 Z-0.20000
G04 P0 ( dwell for no time -- G64 should not smooth over this point )
F50.00000
X11.29780 Y3.16940
X11.45020 Y3.16940
X11.62800 Y3.09320
X11.93280 Y2.83920
X12.05980 Y2.53440
X12.05980 Y2.05180
X11.93280 Y1.74700
X11.62800 Y1.49300
X11.29780 Y1.39140
X10.86600 Y1.41680
X10.56120 Y1.56920
X10.38340 Y1.74700
X10.25640 Y2.05180
X10.25640 Y2.53440
X10.38340 Y2.83920
X10.56120 Y3.01700
X10.86600 Y3.16940
X11.01840 Y3.19480
X11.29780 Y3.16940
G04 P0 ( dwell for no time -- G64 should not smooth over this point )
G00 Z8.00000 ( retract )

G00 X34.15780 Y3.16940 ( rapid move to begin. )
F25.00000
G01 Z-0.20000
G04 P0 ( dwell for no time -- G64 should not smooth over this point )
F50.00000
X34.15780 Y3.16940
X34.31020 Y3.16940
X34.48800 Y3.09320
X34.79280 Y2.83920
X34.91980 Y2.53440
X34.91980 Y2.05180
X34.79280 Y1.74700
X34.48800 Y1.49300
X34.15780 Y1.39140
X33.72600 Y1.41680
X33.42120 Y1.56920
X33.24340 Y1.74700
X33.11640 Y2.05180
X33.11640 Y2.53440
X33.24340 Y2.83920
X33.42120 Y3.01700
X33.72600 Y3.16940
X33.87840 Y3.19480
X34.15780 Y3.16940
G04 P0 ( dwell for no time -- G64 should not smooth over this point )
G00 Z8.00000 ( retract )

G00 X36.69780 Y2.96620 ( rapid move to begin. )
F25.00000
G01 Z-0.20000
G04 P0 ( dwell for no time -- G64 should not smooth over this point )
F50.00000
X36.69780 Y2.96620
X36.90100 Y2.94080
X36.92640 Y2.89000
X37.05340 Y2.83920
X37.12960 Y2.76300
X37.18040 Y2.61060
X37.23120 Y2.58520
X37.25660 Y2.45820
X37.23120 Y2.00100
X37.18040 Y1.97560
X37.12960 Y1.82320
X36.90100 Y1.64540
X36.69780 Y1.59460
X36.29140 Y1.62000
X36.06280 Y1.74700
X35.98660 Y1.82320
X35.93580 Y1.97560
X35.88500 Y2.00100
X35.88500 Y2.58520
X35.93580 Y2.61060
X35.98660 Y2.76300
X36.21520 Y2.94080
X36.41840 Y2.99160
X36.69780 Y2.96620
G04 P0 ( dwell for no time -- G64 should not smooth over this point )
G00 Z8.00000 ( retract )

G00 X36.72320 Y5.50620 ( rapid move to begin. )
F25.00000
G01 Z-0.20000
G04 P0 ( dwell for no time -- G64 should not smooth over this point )
F50.00000
X36.72320 Y5.50620
X36.85020 Y5.50620
X36.87560 Y5.45540
X37.02800 Y5.40460
X37.20580 Y5.17600
X37.25660 Y4.97280
X37.25660 Y4.69340
X37.20580 Y4.49020
X37.02800 Y4.26160
X36.87560 Y4.21080
X36.85020 Y4.16000
X36.72320 Y4.13460
X36.26600 Y4.16000
X36.24060 Y4.21080
X36.08820 Y4.26160
X35.88500 Y4.54100
X35.88500 Y5.12520
X36.01200 Y5.27760
X36.01200 Y5.32840
X36.08820 Y5.40460
X36.24060 Y5.45540
X36.26600 Y5.50620
X36.39300 Y5.53160
X36.72320 Y5.50620
G04 P0 ( dwell for no time -- G64 should not smooth over this point )
G00 Z8.00000 ( retract )

G00 X34.15780 Y5.70940 ( rapid move to begin. )
F25.00000
G01 Z-0.20000
G04 P0 ( dwell for no time -- G64 should not smooth over this point )
F50.00000
X34.15780 Y5.70940
X34.31020 Y5.70940
X34.48800 Y5.63320
X34.79280 Y5.37920
X34.91980 Y5.07440
X34.91980 Y4.59180
X34.79280 Y4.28700
X34.48800 Y4.03300
X34.15780 Y3.93140
X33.72600 Y3.95680
X33.42120 Y4.10920
X33.24340 Y4.28700
X33.11640 Y4.59180
X33.11640 Y5.07440
X33.24340 Y5.37920
X33.42120 Y5.55700
X33.72600 Y5.70940
X34.15780 Y5.70940
G04 P0 ( dwell for no time -- G64 should not smooth over this point )
G00 Z8.00000 ( retract )

G00 X34.15780 Y8.24940 ( rapid move to begin. )
F25.00000
G01 Z-0.20000
G04 P0 ( dwell for no time -- G64 should not smooth over this point )
F50.00000
X34.15780 Y8.24940
X34.31020 Y8.24940
X34.48800 Y8.17320
X34.79280 Y7.91920
X34.91980 Y7.61440
X34.91980 Y7.13180
X34.79280 Y6.82700
X34.48800 Y6.57300
X34.15780 Y6.47140
X33.72600 Y6.49680
X33.42120 Y6.64920
X33.24340 Y6.82700
X33.11640 Y7.13180
X33.11640 Y7.61440
X33.24340 Y7.91920
X33.42120 Y8.09700
X33.72600 Y8.24940
X33.87840 Y8.27480
X34.15780 Y8.24940
G04 P0 ( dwell for no time -- G64 should not smooth over this point )
G00 Z8.00000 ( retract )

G00 X34.15780 Y10.78940 ( rapid move to begin. )
F25.00000
G01 Z-0.20000
G04 P0 ( dwell for no time -- G64 should not smooth over this point )
F50.00000
X34.15780 Y10.78940
X34.31020 Y10.78940
X34.48800 Y10.71320
X34.79280 Y10.45920
X34.91980 Y10.15440
X34.91980 Y9.67180
X34.79280 Y9.36700
X34.48800 Y9.11300
X34.15780 Y9.01140
X33.72600 Y9.03680
X33.42120 Y9.18920
X33.24340 Y9.36700
X33.11640 Y9.67180
X33.11640 Y10.15440
X33.24340 Y10.45920
X33.42120 Y10.63700
X33.72600 Y10.78940
X33.87840 Y10.81480
X34.15780 Y10.78940
G04 P0 ( dwell for no time -- G64 should not smooth over this point )
G00 Z8.00000 ( retract )

G00 X34.15780 Y13.32940 ( rapid move to begin. )
F25.00000
G01 Z-0.20000
G04 P0 ( dwell for no time -- G64 should not smooth over this point )
F50.00000
X34.15780 Y13.32940
X34.31020 Y13.32940
X34.48800 Y13.25320
X34.79280 Y12.99920
X34.91980 Y12.69440
X34.91980 Y12.21180
X34.79280 Y11.90700
X34.48800 Y11.65300
X34.15780 Y11.55140
X33.72600 Y11.57680
X33.42120 Y11.72920
X33.24340 Y11.90700
X33.11640 Y12.21180
X33.11640 Y12.69440
X33.24340 Y12.99920
X33.42120 Y13.17700
X33.72600 Y13.32940
X33.87840 Y13.35480
X34.15780 Y13.32940
G04 P0 ( dwell for no time -- G64 should not smooth over this point )
G00 Z8.00000 ( retract )

G00 X34.15780 Y15.86940 ( rapid move to begin. )
F25.00000
G01 Z-0.20000
G04 P0 ( dwell for no time -- G64 should not smooth over this point )
F50.00000
X34.15780 Y15.86940
X34.31020 Y15.86940
X34.48800 Y15.79320
X34.79280 Y15.53920
X34.91980 Y15.23440
X34.91980 Y14.75180
X34.79280 Y14.44700
X34.48800 Y14.19300
X34.15780 Y14.09140
X33.72600 Y14.11680
X33.42120 Y14.26920
X33.24340 Y14.44700
X33.11640 Y14.75180
X33.11640 Y15.23440
X33.24340 Y15.53920
X33.42120 Y15.71700
X33.72600 Y15.86940
X33.87840 Y15.89480
X34.15780 Y15.86940
G04 P0 ( dwell for no time -- G64 should not smooth over this point )
G00 Z8.00000 ( retract )

G00 X34.15780 Y18.40940 ( rapid move to begin. )
F25.00000
G01 Z-0.20000
G04 P0 ( dwell for no time -- G64 should not smooth over this point )
F50.00000
X34.15780 Y18.40940
X34.31020 Y18.40940
X34.48800 Y18.33320
X34.79280 Y18.07920
X34.91980 Y17.77440
X34.91980 Y17.29180
X34.79280 Y16.98700
X34.48800 Y16.73300
X34.15780 Y16.63140
X33.72600 Y16.65680
X33.42120 Y16.80920
X33.24340 Y16.98700
X33.11640 Y17.29180
X33.11640 Y17.77440
X33.24340 Y18.07920
X33.42120 Y18.25700
X33.72600 Y18.40940
X34.15780 Y18.40940
G04 P0 ( dwell for no time -- G64 should not smooth over this point )
G00 Z8.00000 ( retract )

G00 X34.15780 Y20.94940 ( rapid move to begin. )
F25.00000
G01 Z-0.20000
G04 P0 ( dwell for no time -- G64 should not smooth over this point )
F50.00000
X34.15780 Y20.94940
X34.31020 Y20.94940
X34.48800 Y20.87320
X34.79280 Y20.61920
X34.91980 Y20.31440
X34.91980 Y19.83180
X34.79280 Y19.52700
X34.48800 Y19.27300
X34.15780 Y19.17140
X33.72600 Y19.19680
X33.42120 Y19.34920
X33.24340 Y19.52700
X33.11640 Y19.83180
X33.11640 Y20.31440
X33.24340 Y20.61920
X33.42120 Y20.79700
X33.72600 Y20.94940
X34.15780 Y20.94940
G04 P0 ( dwell for no time -- G64 should not smooth over this point )
G00 Z8.00000 ( retract )

G00 X31.56700 Y47.72100 ( rapid move to begin. )
F25.00000
G01 Z-0.20000
G04 P0 ( dwell for no time -- G64 should not smooth over this point )
F50.00000
X31.56700 Y47.72100
X31.71940 Y47.72100
X31.92260 Y47.61940
X32.10040 Y47.46700
X32.15120 Y47.34000
X32.22740 Y47.28920
X32.27820 Y47.11140
X32.27820 Y46.37480
X32.22740 Y46.19700
X32.15120 Y46.14620
X32.10040 Y46.01920
X31.92260 Y45.86680
X31.82100 Y45.84140
X31.79560 Y45.79060
X31.56700 Y45.73980
X31.13520 Y45.76520
X30.85580 Y45.91760
X30.75420 Y46.01920
X30.70340 Y46.14620
X30.62720 Y46.19700
X30.57640 Y46.37480
X30.57640 Y47.11140
X30.62720 Y47.28920
X30.70340 Y47.34000
X30.75420 Y47.46700
X30.93200 Y47.61940
X31.03360 Y47.64480
X31.05900 Y47.69560
X31.28760 Y47.74640
X31.56700 Y47.72100
G04 P0 ( dwell for no time -- G64 should not smooth over this point )
G00 Z8.00000 ( retract )

G00 X29.61120 Y47.72100 ( rapid move to begin. )
F25.00000
G01 Z-0.20000
G04 P0 ( dwell for no time -- G64 should not smooth over this point )
F50.00000
X29.61120 Y47.72100
X29.68740 Y47.72100
X29.78900 Y47.59400
X29.76360 Y45.81600
X29.58580 Y45.71440
X28.26500 Y45.71440
X28.16340 Y45.76520
X28.06180 Y45.91760
X28.08720 Y47.61940
X28.23960 Y47.74640
X29.61120 Y47.72100

G04 P0 ( dwell for no time -- G64 should not smooth over this point )
G00 Z20.000 ( retract )

M5 ( Spindle off. )
M9 ( Coolant off. )
M2 ( Program end. )

