( pcb2gcode 1.3.2 )
( Software-independent Gcode )

G94 ( Millimeters per minute feed rate. )
G21 ( Units == Millimeters. )

G90 ( Absolute coordinates. )
S1 ( RPM spindle speed. )
F1.00000 ( Feedrate. )

F1.00000 ( Feedrate. )
M3 ( Spindle on clockwise. )
G04 P0 ( dwell for no time -- G64 should not smooth over this point )
G00 Z8.00000 ( retract )

G00 X40.63480 Y97.55580 ( rapid move to begin. )
G01 Z-1.00000 F0.50000 ( plunge. )
G04 P0 ( dwell for no time -- G64 should not smooth over this point )
F1.00000
X40.63480 Y97.55580
X40.63480 Y0.17220
X40.58400 Y0.12140
X0.14720 Y0.12140
X0.09640 Y0.17220
X0.09640 Y97.75900
X0.14720 Y97.80980
X40.58400 Y97.80980
X40.63480 Y97.75900
X40.63480 Y97.55580
G01 Z-2.00000 F0.50000 ( plunge. )
G04 P0 ( dwell for no time -- G64 should not smooth over this point )
F1.00000
X40.63480 Y97.55580
X40.63480 Y0.17220
X40.58400 Y0.12140
X0.14720 Y0.12140
X0.09640 Y0.17220
X0.09640 Y97.75900
X0.14720 Y97.80980
X40.58400 Y97.80980
X40.63480 Y97.75900
X40.63480 Y97.55580
G01 Z-3.00000 F0.50000 ( plunge. )
G04 P0 ( dwell for no time -- G64 should not smooth over this point )
F1.00000
X40.63480 Y97.55580
X40.63480 Y0.17220
X40.58400 Y0.12140
X0.14720 Y0.12140
X0.09640 Y0.17220
X0.09640 Y97.75900
X0.14720 Y97.80980
X40.58400 Y97.80980
X40.63480 Y97.75900
X40.63480 Y97.55580

G04 P0 ( dwell for no time -- G64 should not smooth over this point )
G00 Z20.000 ( retract )

M5 ( Spindle off. )
M9 ( Coolant off. )
M2 ( Program end. )

